!! 00000] TT[WS
!!!OTL: Xiao guonian
!!!ARE: Asia, China, Shanxi Yuanping
!! Ethnic Group: Han
!! WI, 235
!!!SCT: J0280
!!!YEM: Copyright 1995, estate of Helmut Schaffrath.
**kern
*ICvox
*Ivox
*M2/4
*k[]
*C:
{8a
16a
16g
16f
16g
16a
16cc
=1
16a
16g
16f
16g
4d
=2
8g
16g
16g
16f
16g
16a
16cc
=3
16a
16g
16f
16g
4d}
=4
{8dd
8dd
8gg
8dd
=5
8cc
8ee
8dd
8dd
=6
8a
16a
16g
16f
16g
16a
16cc
=7
16a
16g
16f
16g
[4d
=8
4d]}
{4dd
=9
4g
4g}
=10
{8a
16gg
16ee
8ee
8dd
=11
8b
16gg
16ee
8dd
8cc
=12
8dd
8dd
8a
8dd
=13
8dd
8e
4g
=14
8a
8a
8g
8f
=15
2c}
=16
{4dd
4dd
=17
4ff
8dd
8cc
=18
4.b
8cc
=19
4dd
4dd
=20
8dd
8ff
4ff
=21
8a
8g
8a
8g
=22
2f}
=23
{8.a
16g
8f
8g
=24
4g
4g
=25
4d
4f
=26
2g}
=27
{4dd
8dd
8cc
=28
4.b-
8cc
=29
8dd
8ff
8a
8g
=30
4f
8f
8g}
=31
{4b-
8b
8g
=32
8f
8g
8g
8b-
=33
[2f
=34
4f]
4r}
==
!!!AGN: Xiaodiao. Fengsuge
!!!ONB: ESAC (Essen Associative Code) Database: CHINA
!!!AMT: simple duple
!!!AIN: vox
!!!EED: Helmut Schaffrath
!!!EEV: 1.0
*-
!!!ONB: Tied note syntax fixed by Craig Sapp, 2004/05/03/
